X: 1
M: 3/4
L: 1/8
K: D
|:"D"ab ag fe | d2 AF D2 |"D7"DF Ad c=c | "Em"B2 GE B,2 | "A7"A,C EA ce | gf ed cB | Ac ec ac  |1 "D"d2 AF D2 :|2 "D"d6 ||
|:"D"DF AF dF | DF AF dF | "G"G2 BA GA  | "Em"BA GF ED  | "A7"A,C EA ce | gf ed cB | Ac ec ac  |1 "D"d2 AF D2 :|2 "D"d6 |]
